pix_core/e/bullet_list.svg

<!DOCTYPE svg PUBLIC "-//W3C//DTD SVG 1.1//EN" "http://www.w3.org/Graphics/SVG/1.1/DTD/svg11.dtd" [
	<!ENTITY ns_flows "http://ns.adobe.com/Flows/1.0/">
]><svg xmlns="http://www.w3.org/2000/svg" width="16" height="16" viewBox="0 0 16 16" preserveAspectRatio="xMinYMid meet" overflow="visible"><path d="M.6 15.4c-.4-.4-.6-.9-.6-1.4 0-.5.2-1 .6-1.4.4-.4.9-.6 1.4-.6.5 0 1 .2 1.4.6.4.4.6.9.6 1.4 0 .5-.2 1-.6 1.4-.4.4-.9.6-1.4.6-.5 0-1-.2-1.4-.6zm0-6c-.4-.4-.6-.9-.6-1.4s.2-1 .6-1.4c.4-.4.9-.6 1.4-.6.5 0 1 .2 1.4.6.4.4.6.9.6 1.4s-.2 1-.6 1.4c-.4.4-.9.6-1.4.6-.5 0-1-.2-1.4-.6zm0-6c-.4-.4-.6-.9-.6-1.4s.2-1 .6-1.4c.4-.4.9-.6 1.4-.6.5 0 1 .2 1.4.6.4.4.6.9.6 1.4s-.2 1-.6 1.4c-.4.4-.9.6-1.4.6-.5 0-1-.2-1.4-.6zm5.4 9.6h10v2h-10v-2zm0-6h10v2h-10v-2zm0-6v2h10v-2h-10z" fill="#1F4D87"/></svg>

<!DOCTYPE svg PUBLIC "-//W3C//DTD SVG 1.1//EN" "http://www.w3.org/Graphics/SVG/1.1/DTD/svg11.dtd" [
	<!ENTITY ns_flows "http://ns.adobe.com/Flows/1.0/">
]><svg xmlns="http://www.w3.org/2000/svg" width="16" height="16" viewBox="0 0 16 16" preserveAspectRatio="xMinYMid meet" overflow="visible"><path d="M.6 15.4C.2 15 0 14.5 0 14c0-.5.2-1 .6-1.4.4-.4.9-.6 1.4-.6.5 0 1 .2 1.4.6.4.4.6.9.6 1.4 0 .5-.2 1-.6 1.4-.4.4-.9.6-1.4.6-.5 0-1-.2-1.4-.6zm0-6C.2 9 0 8.5 0 8s.2-1 .6-1.4C1 6.2 1.5 6 2 6c.5 0 1 .2 1.4.6.4.4.6.9.6 1.4s-.2 1-.6 1.4c-.4.4-.9.6-1.4.6-.5 0-1-.2-1.4-.6zm0-6C.2 3 0 2.5 0 2S.2 1 .6.6C1 .2 1.5 0 2 0c.5 0 1 .2 1.4.6.4.4.6.9.6 1.4s-.2 1-.6 1.4C3 3.8 2.5 4 2 4c-.5 0-1-.2-1.4-.6zM6 13h10v2H6v-2zm0-6h10v2H6V7zm0-6v2h10V1H6z" fill="#999"/></svg>
